X:83
M:2/4
L:1/8
K:D
| DF AB/c/ | dc BA | BE EF | G2 FE | 
| fA fA | fA f2 | ed B/c/d | e2 ed/e/ | 
fA fA | gB gf | ed Bc | d2 d2 :|| 

